hosted/assets/icon/widgets/dark-mode/label.svg

<svg width="50" height="50" viewBox="0 0 50 50" fill="none" xmlns="http://www.w3.org/2000/svg">
<path d="M14.5 17.5V14.5H35V17.5H27V35H22.5V17.5H14.5Z" fill="#4A6BB7"/>
<path d="M4.81253 7C4.33597 7.08984 3.99222 7.51172 4.00003 8V22H3.00003C2.96878 22 2.93753 22 2.90628 22C2.39065 22.0469 1.99612 22.4805 2.00003 23V27C2.00003 27.5508 2.44925 28 3.00003 28H4.00003V42C4.00003 42.5508 4.44925 43 5.00003 43H45C45.5508 43 46 42.5508 46 42V28H47C47.5508 28 48 27.5508 48 27V23C48 22.4492 47.5508 22 47 22H46V8C46 7.44922 45.5508 7 45 7H5.00003C4.96878 7 4.93753 7 4.90628 7C4.87503 7 4.84378 7 4.81253 7ZM6.00003 9H44V22H43C42.9688 22 42.9375 22 42.9063 22C42.3907 22.0469 41.9961 22.4805 42 23V27C42 27.5508 42.4492 28 43 28H44V41H6.00003V28H7.00003C7.55081 28 8.00003 27.5508 8.00003 27V23C8.00003 22.4492 7.55081 22 7.00003 22H6.00003V9ZM14.8125 13C14.336 13.0898 13.9922 13.5117 14 14V18C14 18.5508 14.4492 19 15 19H22V36C22 36.5508 22.4492 37 23 37H27C27.5508 37 28 36.5508 28 36V19H35C35.5508 19 36 18.5508 36 18V14C36 13.4492 35.5508 13 35 13H15C14.9688 13 14.9375 13 14.9063 13C14.875 13 14.8438 13 14.8125 13ZM16 15H34V17H27C26.4492 17 26 17.4492 26 18V35H24V18C24 17.4492 23.5508 17 23 17H16V15ZM4.00003 24H6.00003V26H4.00003V24ZM44 24H46V26H45.1875C45.0547 25.9727 44.9141 25.9727 44.7813 26H44V24Z" fill="white"/>
</svg>

<svg width="50" height="50" fill="none" xmlns="http://www.w3.org/2000/svg"><path d="M14.5 17.5v-3H35v3h-8V35h-4.5V17.5h-8z" fill="#4A6BB7"/><path d="M4.813 7A1 1 0 004 8v14H2.906A.996.996 0 002 23v4c0 .55.45 1 1 1h1v14c0 .55.45 1 1 1h40c.55 0 1-.45 1-1V28h1c.55 0 1-.45 1-1v-4c0-.55-.45-1-1-1h-1V8c0-.55-.45-1-1-1H4.813zM6 9h38v13h-1.094A.996.996 0 0042 23v4c0 .55.45 1 1 1h1v13H6V28h1c.55 0 1-.45 1-1v-4c0-.55-.45-1-1-1H6V9zm8.813 4A1 1 0 0014 14v4c0 .55.45 1 1 1h7v17c0 .55.45 1 1 1h4c.55 0 1-.45 1-1V19h7c.55 0 1-.45 1-1v-4c0-.55-.45-1-1-1H14.812zM16 15h18v2h-7c-.55 0-1 .45-1 1v17h-2V18c0-.55-.45-1-1-1h-7v-2zM4 24h2v2H4v-2zm40 0h2v2h-.813a1.018 1.018 0 00-.406 0H44v-2z" fill="#fff"/></svg>
